X:1
T:Title
%%score { ( 1 4 ) | ( 2 3 ) }
L:1/8
Q:1/4=106
M:4/4
K:G
V:1 treble nm="Grand Piano"
V:4 treble 
V:2 bass 
V:3 bass 
V:1
 D2 GA G2 D2 | GBde d3 d | [DAc]2 [DFA]2 [DGB]2 [^CG]2 | F4- [Fd]2 z2 | D2 GA G2 D2 | GBde d3 B | %6
w: Philip~Phillips * * * *||||||
 A2 d2 [Fd]2 [E^c]2 | [Fd]6 z2 | DEFG [FA]2 [FA]2 | GABc d2 d2 | [Fd]2 [FA]2 [Fd]2 [DFA]2 | %11
w: |||||
 [DGB][DFA][DG][DGB] [DFA]4 | [DGB][CDA][B,DG][A,DF] [G,DG]2 [G,B,D]2 | %13
w: ||
 [G,CE][G,DF][G,EG][G,CE] [CE]2 [B,D]2 | DDEF GFG[^CGA] | [DGB]2 [CDA]2 [B,DG]4 |] %16
w: |||
V:2
 [G,B,]2 [G,B,D][G,CD] [G,B,D]2 [G,B,]2 | .[B,D]2 [G,G]2 z4 | F,2 D,2 G,2 E,2 | z4 C2 z2 | %4
 [G,B,]2 [G,B,D][G,CD] [G,B,D]2 [G,B,]2 | [B,D][DG][G,G]-[G,CG] [G,B,G]3 [G,DG] | %6
 [A,DF]2 [A,F]2[K:bass] [A,,A,]2 [A,,A,]2 | [D,A,]6 z2 | %8
 [D,F,][D,G,D][D,A,D][D,B,D] [D,C]2 [D,C]2 | [G,B,][F,CD][G,D][G,A,D] [G,B,D]2 [G,B,D]2 | %10
 [D,A,]2 [D,D]2 [D,A,]2 D,2 | G,D,B,,G,, D,4 | G,,G,,G,,C, B,,2 G,,2 | C,C,C,C, [G,,G,]2 [G,,G,]2 | %14
 [D,F,][D,F,][D,G,D][D,A,D] [D,B,D][D,CD][E,B,]E, | D,2 D,2 G,,4 |] %16
V:3
 x8 | G,-[G,DG]B,C [G,B,G]3 [G,B,G] | x8 | D,6 z2 | x8 | G,2 .B,2 z4 | x4[K:bass] x4 | x8 | x8 | %9
 x8 | x8 | x8 | x8 | x8 | x8 | x8 |] %16
V:4
 x8 | x8 | x8 | [DA]4 z4 | x8 | x8 | x8 | x8 | x8 | x8 | x8 | x8 | x8 | x8 | x8 | x8 |] %16

